X:1
T:Bald gras i am Acker
T:Arr: Max Reger
T:Anon.
%%score [ 1 2 3 4 ]
L:1/8
Q:1/4=80
M:3/4
K:A
V:1 treble nm="Soprano"
V:2 treble nm="Alto"
V:3 treble-8 nm="Tenor"
V:4 bass nm="Bass"
V:1
"^Gemütlich" (cd) | c2 B2 B2 | A2 c2 c2 | e2 B2 B2 | !>!e4 (cd) | c2 B2 B2 | A2 c2 c2 | %7
w: Bald _|gras i am|A- cker, bald|gras i am|Rain, bald _|hab i a|Schätz- le, bald|
 e2 B2 (Bc) | A4 |] %9
w: bin i al- *|lein.|
V:2
 A2 | G2 G2 G2 | E2 A2 A2 | A2 (GF) G2 | !>!=G4 F2 | F2 F2 (GF) | E2 A2 A2 | A2 A2 G2 | E4 |] %9
w: Bald|gras i am|A- cker, bald|gras i _ am|Rain, bald|hab i a _|Schätz- le, bald|bin i al-|lein.|
V:3
 e2 | e2 d2 d2 | c2 e2 e2 | e2 d2 (cB) | !>!A4 ^A2 | e2 d2 d2 | c2 e2 (ef) | e2 (f^d) =d2 | c4 |] %9
w: Bald|gras i am|A- cker, bald|gras i am _|Rain, bald|hab i a|Schätz- le, bald _|bin i _ al-|lein.|
V:4
 A,2 | E,2 E,2 E,2 | A,2 A,2 A,2 | (C,D,) E,2 E,2 | !>!C,4 F,2 | B,,2 B,,2 E,2 | A,2 A,2 A,2 | %7
w: Bald|gras i am|A- cker, bald|gras _ i am|Rain, bald|hab i a|Schätz- le, bald|
 (C,D,) E,2 E,2 | A,4 |] %9
w: bin _ i al-|lein.|

